packages/webapp/public/images/template-logos/slack.svg

<svg width="62" height="62" viewBox="0 0 62 62" fill="none" xmlns="http://www.w3.org/2000/svg">
<path d="M18.2742 36.7947C18.2742 39.3508 16.2094 41.4155 13.6534 41.4155C11.0996 41.4155 9.03247 39.3508 9.03247 36.7947C9.03247 34.2409 11.0996 32.1738 13.6534 32.1738H18.2742V36.7947ZM20.5846 36.7947C20.5846 34.2409 22.6494 32.1738 25.2054 32.1738C27.7615 32.1738 29.8263 34.2409 29.8263 36.7947V48.3468C29.8263 50.9029 27.7615 52.9677 25.2054 52.9677C22.6494 52.9677 20.5846 50.9029 20.5846 48.3468V36.7947Z" fill="#E01E5A"/>
<path d="M25.2078 18.2417C22.6517 18.2417 20.5869 16.1769 20.5869 13.6209C20.5869 11.0671 22.6517 9 25.2078 9C27.7615 9 29.8286 11.0671 29.8286 13.6209V18.2417H25.2078ZM25.2078 20.5869C27.7615 20.5869 29.8286 22.654 29.8286 25.2077C29.8286 27.7638 27.7615 29.8286 25.2078 29.8286H13.6209C11.0648 29.8286 9 27.7638 9 25.2077C9 22.654 11.0648 20.5869 13.6209 20.5869H25.2078Z" fill="#36C5F0"/>
<path d="M43.7235 25.2077C43.7235 22.654 45.7883 20.5869 48.3444 20.5869C50.8981 20.5869 52.9652 22.654 52.9652 25.2077C52.9652 27.7638 50.8981 29.8286 48.3444 29.8286H43.7235V25.2077ZM41.413 25.2077C41.413 27.7638 39.346 29.8286 36.7922 29.8286C34.2361 29.8286 32.1714 27.7638 32.1714 25.2077V13.6209C32.1714 11.0671 34.2361 9 36.7922 9C39.346 9 41.413 11.0671 41.413 13.6209V25.2077Z" fill="#2EB67D"/>
<path d="M36.7922 43.726C39.346 43.726 41.413 45.7931 41.413 48.3468C41.413 50.9029 39.346 52.9677 36.7922 52.9677C34.2361 52.9677 32.1714 50.9029 32.1714 48.3468V43.726H36.7922ZM36.7922 41.4155C34.2361 41.4155 32.1714 39.3508 32.1714 36.7947C32.1714 34.2409 34.2361 32.1738 36.7922 32.1738H48.3791C50.9328 32.1738 52.9999 34.2409 52.9999 36.7947C52.9999 39.3508 50.9328 41.4155 48.3791 41.4155H36.7922Z" fill="#ECB22E"/>
</svg>

<svg xmlns="http://www.w3.org/2000/svg" width="62" height="62" fill="none"><path d="M18.274 36.795c0 2.556-2.065 4.621-4.621 4.621a4.62 4.62 0 1 1 0-9.242h4.621v4.621zm2.31 0a4.62 4.62 0 1 1 9.242 0v11.552c0 2.556-2.065 4.621-4.621 4.621s-4.621-2.065-4.621-4.621V36.795z" fill="#e01e5a"/><path d="M25.208 18.242c-2.556 0-4.621-2.065-4.621-4.621a4.62 4.62 0 1 1 9.242 0v4.621h-4.621zm0 2.345a4.62 4.62 0 1 1 0 9.242H13.621C11.065 29.829 9 27.764 9 25.208a4.62 4.62 0 0 1 4.621-4.621h11.587z" fill="#36c5f0"/><path d="M43.724 25.208a4.62 4.62 0 1 1 9.242 0 4.62 4.62 0 0 1-4.621 4.621h-4.621v-4.621zm-2.31 0a4.62 4.62 0 0 1-4.621 4.621c-2.556 0-4.621-2.065-4.621-4.621V13.621a4.62 4.62 0 1 1 9.242 0v11.587z" fill="#2eb67d"/><path d="M36.792 43.726a4.62 4.62 0 1 1 0 9.242c-2.556 0-4.621-2.065-4.621-4.621v-4.621h4.621zm0-2.31c-2.556 0-4.621-2.065-4.621-4.621a4.62 4.62 0 0 1 4.621-4.621h11.587a4.62 4.62 0 1 1 0 9.242H36.792z" fill="#ecb22e"/></svg>
